X:1
T:Buxtehude - Aria:  La Capricciosa in G Minor.
T:ARIA:  LA CAPRICCIOSA (in G Minor)
%%score { ( 1 2 ) | ( 3 4 ) }
L:1/8
Q:1/4=100
M:4/4
K:G
V:1 treble nm="Harpsichord" snm="Hch."
V:2 treble 
V:3 bass 
V:4 bass 
V:1
"^Partita 1"!f! d2 Td3/2c/4d/4 e3- (e/4d/4c/4B/4) | A>d Pc>d MB2 G>A | PB>c d2 [Ac]2 B2 | %3
 A4"^BuxWV 250" G4 :: B2 PB2 c2- c>B | A>c MB>A B2 G>A | PB>c d2 c2 B2 | A4 G4 :| %8
V:2
 B,2 B,2 MC3/2B,/4A,/4 G,2 | z G, A,2 z A,B,C | D3 D E>F G2- | GE MF2 D4 :: z2 G2- G>A G>G- | %5
 G3 ^F [DG]2 [B,D] z | PG>A B2- B A2 G | z E PD>C [B,D]4 :| %8
V:3
 G,2 G,2 z2 E,2 | F,3 F, G,4 | G,>A, B,2 C3 ^C | D2 z C B,4 :: z D3 z G, C>D | z E D2 z PD, G,2- | %6
 G, G,2 =F, E,>^F, G,2- | G,3 F, G,4 :| %8
V:4
 x8 | x8 | x8 | x2 D,2 G,2 G,,2 :: G,>A, G,>=F, E,2- E,>D, | C,2 D,2 G,,4 | G,,4 A,,2 B,,2 | %7
 C,2 D,2 z2 G,,2 :| %8

